Newaita-dark/.DP/22/cryptkeeper.svg

<svg xmlns="http://www.w3.org/2000/svg" xmlns:xlink="http://www.w3.org/1999/xlink" width="22px" height="22px" viewBox="0 0 22 22" version="1.1">
<g id="surface1">
<path style=" stroke:none;fill-rule:nonzero;fill:rgb(93.333334%,93.333334%,93.333334%);fill-opacity:1;" d="M 16.296875 3.007812 C 15.804688 2.898438 14.78125 3.203125 14.578125 3.558594 L 14.394531 3.871094 C 14.347656 3.84375 14.285156 3.832031 14.222656 3.847656 L 13.785156 3.96875 C 13.664062 4 13.589844 4.125 13.621094 4.246094 L 13.742188 4.683594 C 13.757812 4.746094 13.796875 4.792969 13.847656 4.824219 L 13.644531 5.175781 C 13.605469 5.164062 13.5625 5.160156 13.523438 5.175781 L 12.644531 5.410156 C 12.523438 5.441406 12.449219 5.566406 12.484375 5.6875 L 12.71875 6.566406 C 12.730469 6.609375 12.75 6.640625 12.78125 6.671875 L 12.757812 6.710938 C 12.777344 6.734375 12.792969 6.761719 12.804688 6.792969 L 12.984375 7.265625 C 13.035156 7.398438 12.964844 7.523438 12.824219 7.546875 L 12.324219 7.628906 C 12.289062 7.632812 12.257812 7.632812 12.226562 7.625 L 12.199219 7.675781 C 12.148438 7.648438 12.085938 7.640625 12.027344 7.65625 L 11.585938 7.773438 C 11.464844 7.804688 11.394531 7.929688 11.425781 8.050781 L 11.542969 8.492188 C 11.558594 8.550781 11.601562 8.601562 11.648438 8.628906 L 10.9375 9.859375 L 9.921875 9.800781 L 8.890625 11.589844 C 7.296875 11.105469 5.957031 11.214844 5.511719 11.980469 L 4.601562 13.554688 C 3.972656 14.648438 5.398438 16.640625 7.796875 18.027344 C 10.199219 19.414062 12.636719 19.648438 13.269531 18.558594 L 14.179688 16.984375 C 14.621094 16.214844 14.046875 15 12.828125 13.863281 L 13.859375 12.074219 L 13.300781 11.226562 L 16.941406 4.921875 C 17.144531 4.570312 16.894531 3.53125 16.558594 3.15625 C 16.679688 3.304688 16.699219 3.519531 16.597656 3.699219 L 11.839844 11.933594 C 11.710938 12.160156 11.429688 12.246094 11.210938 12.117188 C 10.992188 11.992188 10.921875 11.707031 11.054688 11.480469 L 15.808594 3.242188 C 15.914062 3.066406 16.109375 2.976562 16.296875 3.007812 Z M 9.355469 15.25 L 9.425781 15.289062 C 10.496094 15.910156 11.257812 16.582031 11.132812 16.800781 L 10.679688 17.589844 C 10.550781 17.808594 9.585938 17.484375 8.515625 16.867188 L 8.445312 16.824219 C 7.375 16.207031 6.613281 15.53125 6.738281 15.316406 L 7.195312 14.527344 C 7.320312 14.308594 8.285156 14.632812 9.355469 15.25 Z M 9.355469 15.25 "/>
</g>
</svg>

<svg xmlns="http://www.w3.org/2000/svg" width="22pt" height="22pt" viewBox="0 0 22 22"><path d="M16.297 3.008c-.492-.106-1.516.199-1.719.55l-.183.313a.232.232 0 0 0-.172-.023l-.438.117a.23.23 0 0 0-.16.281l.117.438c.016.062.055.109.106.14l-.203.352a.254.254 0 0 0-.122-.004l-.878.238a.223.223 0 0 0-.16.277l.234.88a.207.207 0 0 0 .062.105l-.023.039c.02.023.035.05.047.082l.18.477c.05.128-.02.253-.16.277l-.5.082a.408.408 0 0 1-.098 0l-.028.05a.22.22 0 0 0-.172-.023l-.441.117a.226.226 0 0 0-.16.278l.117.441a.22.22 0 0 0 .105.137l-.71 1.23-1.016-.058L8.89 11.59c-1.594-.488-2.934-.38-3.38.39l-.906 1.575c-.632 1.093.793 3.086 3.196 4.472 2.398 1.387 4.84 1.621 5.469.532l.91-1.575c.441-.77-.133-1.984-1.352-3.12l1.035-1.79-.562-.847 3.64-6.301c.204-.356-.046-1.395-.382-1.766.12.145.14.36.039.54l-4.758 8.234a.456.456 0 0 1-.63.183.46.46 0 0 1-.155-.637l4.754-8.234c.105-.183.3-.27.488-.238zM9.355 15.25l.07.04c1.071.62 1.833 1.292 1.708 1.51l-.453.79c-.13.219-1.09-.106-2.164-.723l-.07-.043c-1.071-.617-1.833-1.293-1.708-1.508l.457-.789c.125-.218 1.09.102 2.16.723zm0 0" fill="#bdbdbd"/></svg>
